svgs/sharp-solid/album-collection-circle-plus.svg

<svg xmlns="http://www.w3.org/2000/svg" viewBox="0 0 640 512"><!--! Font Awesome Pro 6.6.0 by @fontawesome - https://fontawesome.com License - https://fontawesome.com/license (Commercial License) Copyright 2024 Fonticons, Inc. --><path d="M32 0L56 0 456 0l24 0 0 48-24 0L56 48 32 48 32 0zm8 512L0 160l512 0-3.7 32.4c-4.1-.3-8.2-.4-12.3-.4c-46.9 0-89.5 18.3-121 48.2C342.9 220.1 301.4 208 256 208C154.4 208 72 268.9 72 344s82.4 136 184 136c33.2 0 64.4-6.5 91.3-17.9c12.4 19.6 28.6 36.6 47.5 49.9L40 512zM256 376c-17.7 0-32-10.7-32-24s14.3-24 32-24s32 10.7 32 24s-14.3 24-32 24zM40 80l432 0 24 0 0 48-24 0L40 128l-24 0 0-48 24 0zM496 224a144 144 0 1 1 0 288 144 144 0 1 1 0-288zm16 80l0-16-32 0 0 16 0 48-48 0-16 0 0 32 16 0 48 0 0 48 0 16 32 0 0-16 0-48 48 0 16 0 0-32-16 0-48 0 0-48z"/></svg>

<svg xmlns="http://www.w3.org/2000/svg" viewBox="0 0 640 512"><!--! Font Awesome Pro 6.4.2 by @fontawesome - https://fontawesome.com License - https://fontawesome.com/license (Commercial License) Copyright 2023 Fonticons, Inc. --><path d="M32 0H56 456h24V48H456 56 32V0zm8 512L0 160H512l-3.7 32.4c-4.1-.3-8.2-.4-12.3-.4c-46.9 0-89.5 18.3-121 48.2C342.9 220.1 301.4 208 256 208C154.4 208 72 268.9 72 344s82.4 136 184 136c33.2 0 64.4-6.5 91.3-17.9c12.4 19.6 28.6 36.6 47.5 49.9H40zM256 376c-17.7 0-32-10.7-32-24s14.3-24 32-24s32 10.7 32 24s-14.3 24-32 24zM40 80H472h24v48H472 40 16V80H40zM496 224a144 144 0 1 1 0 288 144 144 0 1 1 0-288zm16 80V288H480v16 48H432 416v32h16 48v48 16h32V432 384h48 16V352H560 512V304z"/></svg>
